assets/ui-icons/add-top.svg

<?xml version="1.0" encoding="UTF-8" standalone="no"?>
<svg
   viewBox="0 0 512 512"
   version="1.1"
   id="svg4"
   sodipodi:docname="add-top.svg"
   inkscape:version="1.2.2 (b0a8486541, 2022-12-01)"
   xmlns:inkscape="http://www.inkscape.org/namespaces/inkscape"
   xmlns:sodipodi="http://sodipodi.sourceforge.net/DTD/sodipodi-0.dtd"
   xmlns="http://www.w3.org/2000/svg"
   xmlns:svg="http://www.w3.org/2000/svg">
  <defs
     id="defs8" />
  <sodipodi:namedview
     id="namedview6"
     pagecolor="#ffffff"
     bordercolor="#000000"
     borderopacity="0.25"
     inkscape:showpageshadow="2"
     inkscape:pageopacity="0.0"
     inkscape:pagecheckerboard="0"
     inkscape:deskcolor="#d1d1d1"
     showgrid="false"
     inkscape:zoom="2.0058594"
     inkscape:cx="256"
     inkscape:cy="256"
     inkscape:window-width="3840"
     inkscape:window-height="2039"
     inkscape:window-x="0"
     inkscape:window-y="0"
     inkscape:window-maximized="1"
     inkscape:current-layer="svg4" />
  <!--! Font Awesome Pro 6.2.1 by @fontawesome - https://fontawesome.com License - https://fontawesome.com/license (Commercial License) Copyright 2022 Fonticons, Inc. -->
  <path
     d="M448 416l0-64L64 352l0 64 384 0zm0 64L64 480c-35.3 0-64-28.7-64-64l0-64c0-35.3 28.7-64 64-64l384 0c35.3 0 64 28.7 64 64l0 64c0 35.3-28.7 64-64 64zM288 160c0 35.3-28.7 64-64 64L64 224c-35.3 0-64-28.7-64-64L0 96C0 60.7 28.7 32 64 32l144 0 16 0 144 0c44.2 0 80 35.8 80 80l0 16 38.1 0c21.4 0 32.1 25.9 17 41L433 239c-9.4 9.4-24.6 9.4-33.9 0L329 169c-15.1-15.1-4.4-41 17-41l38.1 0 0-16c0-8.8-7.2-16-16-16l-80 0 0 64z"
     id="path2"
     style="fill:#ffffff" />
</svg>

<?xml version="1.0" encoding="UTF-8" standalone="no"?>
<!DOCTYPE svg PUBLIC "-//W3C//DTD SVG 1.1//EN" "http://www.w3.org/Graphics/SVG/1.1/DTD/svg11.dtd">
<svg width="100%" height="100%" viewBox="0 0 512 512" version="1.1" xmlns="http://www.w3.org/2000/svg" style="fill-rule:evenodd;clip-rule:evenodd;stroke-linejoin:round;stroke-miterlimit:2;">
    <path id="path2" d="M448,416L448,352L64,352L64,416L448,416ZM448,480L64,480C28.7,480 0,451.3 0,416L0,352C0,316.7 28.7,288 64,288L448,288C483.3,288 512,316.7 512,352L512,416C512,451.3 483.3,480 448,480ZM288,160C288,195.3 259.3,224 224,224L64,224C28.7,224 0,195.3 0,160L0,96C0,60.7 28.7,32 64,32L368,32C412.2,32 448,67.8 448,112L448,128L486.1,128C507.5,128 518.2,153.9 503.1,169L433,239C423.6,248.4 408.4,248.4 399.1,239L329,169C313.9,153.9 324.6,128 346,128L384.1,128L384.1,112C384.1,103.2 376.9,96 368.1,96L288.1,96L288.1,160L288,160Z" style="fill:white;fill-rule:nonzero;"/>
</svg>
